;FLAVOR:Marlin
;TIME:21606
;Filament used: 21.8782m
;Layer height: 0.28
;MINX:32.991
;MINY:48.992
;MINZ:0.28
;MAXX:202.008
;MAXY:186.009
;MAXZ:14
;Generated with Cura_SteamEngine 4.11.0
M140 S50
M105
M190 S50
M104 S210
M105
M109 S210
M82 ;absolute extrusion mode
; Ender 3 Custom Start G-code
G92 E0 ; Reset Extruder
G28 ; Home all axes
G1 Z2.0 F3000 ; Move Z Axis up little to prevent scratching of Heat Bed
G1 X0.1 Y20 Z0.3 F5000.0 ; Move to start position
G1 X0.1 Y200.0 Z0.3 F1500.0 E15 ; Draw the first line
G1 X0.4 Y200.0 Z0.3 F5000.0 ; Move to side a little
G1 X0.4 Y20 Z0.3 F1500.0 E30 ; Draw the second line
G92 E0 ; Reset Extruder
G1 Z2.0 F3000 ; Move Z Axis up little to prevent scratching of Heat Bed
G1 X5 Y20 Z0.3 F5000.0 ; Move over to prevent blob squish
G92 E0
G92 E0
G1 F2700 E-5
;LAYER_COUNT:50
;LAYER:0
M107
G0 F6000 X37.843 Y51.583 Z0.28
;TYPE:SKIRT
G1 F2700 E0
G1 F1200 X38.651 Y51.019 E0.04588
G1 X38.912 Y50.854 E0.06026
G1 X39.725 Y50.387 E0.10392
G1 X40.94 Y49.848 E0.16581
G1 X41.122 Y49.78 E0.17486
G1 X42.014 Y49.489 E0.21855
G1 X42.763 Y49.308 E0.25443
G1 X43.163 Y49.226 E0.27344
G1 X44.089 Y49.077 E0.31711
G1 X45.08 Y49.006 E0.36338
G1 X45.456 Y48.996 E0.38089
G1 X45.748 Y48.992 E0.39449
G1 X188.664 Y48.992 E7.04926
G1 X189.911 Y49.013 E7.10733
G1 X191.289 Y49.125 E7.17171
G1 X192.483 Y49.363 E7.2284
G1 X192.727 Y49.426 E7.24013
G1 X193.142 Y49.542 E7.2602
G1 X193.355 Y49.606 E7.27056
G1 X194.658 Y50.089 E7.33526
G1 X195.525 Y50.518 E7.38031
G1 X196.13 Y50.877 E7.41306
G1 X196.301 Y50.986 E7.42251
G1 X197.062 Y51.518 E7.46574
G1 X197.269 Y51.676 E7.47787
G1 X197.99 Y52.276 E7.52154
G1 X198.657 Y52.936 E7.56524
G1 X199.3 Y53.696 E7.61159
G1 X199.429 Y53.863 E7.62142
G1 X200.161 Y54.935 E7.68186
G1 X200.27 Y55.117 E7.69174
G1 X200.717 Y55.942 E7.73543
G1 X201.127 Y56.892 E7.78361
G1 X201.217 Y57.131 E7.79551
G1 X201.494 Y57.967 E7.83651
G1 X201.515 Y58.04 E7.84005
G1 X201.806 Y59.341 E7.90213
G1 X201.843 Y59.572 E7.91302
G1 X201.91 Y60.061 E7.936
G1 X201.929 Y60.227 E7.94378
G1 X201.997 Y61.208 E7.98957
G1 X202.005 Y61.534 E8.00476
G1 X202.008 Y61.804 E8.01733
G1 X202.007 Y70.937 E8.4426
G1 X201.993 Y71.816 E8.48354
G1 X201.948 Y72.646 E8.52224
G1 X201.775 Y74.532 E8.61043
G1 X201.613 Y77.072 E8.72894
G1 X201.525 Y79.559 E8.84482
G1 X201.506 Y82.086 E8.96249
G1 X201.56 Y84.606 E9.07986
G1 X201.685 Y87.137 E9.19786
G1 X201.882 Y89.672 E9.31625
G1 X201.924 Y90.103 E9.33642
G1 X201.963 Y90.578 E9.35861
G1 X201.997 Y91.209 E9.38804
G1 X202.005 Y91.536 E9.40327
G1 X202.008 Y91.805 E9.41579
G1 X202.007 Y172.891 E13.1915
G1 X201.996 Y173.669 E13.22773
G1 X201.931 Y174.712 E13.27639
G1 X201.89 Y175.086 E13.29391
G1 X201.739 Y176.059 E13.33976
G1 X201.516 Y176.97 E13.38343
G1 X201.231 Y177.821 E13.42522
G1 X201.109 Y178.141 E13.44117
G1 X200.738 Y179.002 E13.48482
G1 X200.348 Y179.738 E13.52361
G1 X200.217 Y179.964 E13.53577
G1 X199.712 Y180.755 E13.57947
G1 X198.997 Y181.67 E13.63354
G1 X198.856 Y181.832 E13.64354
G1 X198.211 Y182.512 E13.68718
G1 X197.195 Y183.383 E13.7495
G1 X197.002 Y183.529 E13.76077
G1 X196.231 Y184.062 E13.80441
G1 X195.145 Y184.663 E13.86221
G1 X194.861 Y184.8 E13.87689
G1 X194 Y185.172 E13.92056
G1 X193.288 Y185.415 E13.95559
G1 X193.16 Y185.454 E13.96182
G1 X192.569 Y185.617 E13.99037
G1 X192.332 Y185.675 E14.00173
G1 X191.412 Y185.859 E14.04542
G1 X190.515 Y185.961 E14.08746
G1 X189.995 Y185.989 E14.11171
G1 X189.5 Y186.004 E14.13477
G1 X189.167 Y186.009 E14.15027
G1 X46.078 Y186.007 E20.8131
G1 X45.326 Y185.996 E20.84812
G1 X44.362 Y185.939 E20.89308
G1 X44.002 Y185.902 E20.90993
G1 X43.074 Y185.767 E20.9536
G1 X42.263 Y185.581 E20.99234
G1 X41.193 Y185.236 E21.04469
G1 X40.869 Y185.113 E21.06083
G1 X40.007 Y184.743 E21.10451
G1 X39.187 Y184.305 E21.1478
G1 X38.958 Y184.17 E21.16018
G1 X38.171 Y183.66 E21.20385
G1 X37.35 Y183.015 E21.25246
G1 X37.195 Y182.881 E21.262
G1 X36.512 Y182.238 E21.30568
G1 X35.887 Y181.54 E21.34931
G1 X35.578 Y181.145 E21.37266
G1 X35.433 Y180.951 E21.38394
G1 X34.904 Y180.177 E21.42759
G1 X34.325 Y179.122 E21.48363
G1 X34.185 Y178.83 E21.49871
G1 X33.816 Y177.967 E21.54241
G1 X33.563 Y177.219 E21.57918
G1 X33.526 Y177.095 E21.58521
G1 X33.382 Y176.564 E21.61083
G1 X33.325 Y176.331 E21.622
G1 X33.141 Y175.411 E21.66568
G1 X33.035 Y174.461 E21.71019
G1 X33.011 Y174.002 E21.7316
G1 X32.996 Y173.522 E21.75396
G1 X32.991 Y173.178 E21.76998
G1 X32.992 Y61.972 E26.94819
G1 X33.002 Y61.29 E26.97995
G1 X33.048 Y60.439 E27.01964
G1 X33.07 Y60.201 E27.03077
G1 X33.196 Y59.271 E27.07447
G1 X33.408 Y58.328 E27.11947
G1 X33.489 Y58.03 E27.13385
G1 X33.773 Y57.136 E27.17753
G1 X34.189 Y56.152 E27.22728
G1 X34.336 Y55.846 E27.24309
G1 X34.778 Y55.018 E27.28679
G1 X35.525 Y53.912 E27.34894
G1 X35.624 Y53.783 E27.35651
G1 X36.226 Y53.064 E27.40017
G1 X36.944 Y52.347 E27.44742
G1 X37.123 Y52.184 E27.45869
G1 X37.843 Y51.583 E27.50237
G0 F6000 X38.099 Y51.89
G1 F1200 X38.865 Y51.357 E27.54582
G1 X39.126 Y51.192 E27.5602
G1 X39.925 Y50.735 E27.60306
G1 X41.08 Y50.222 E27.66191
G1 X41.262 Y50.154 E27.67095
G1 X42.138 Y49.87 E27.71383
G1 X42.843 Y49.7 E27.7476
G1 X43.243 Y49.618 E27.76661
G1 X44.152 Y49.472 E27.80948
G1 X45.09 Y49.406 E27.85327
G1 X45.466 Y49.396 E27.87078
G1 X45.748 Y49.392 E27.88392
G1 X188.664 Y49.392 E34.53868
G1 X189.904 Y49.413 E34.59643
G1 X191.232 Y49.521 E34.65847
G1 X192.383 Y49.751 E34.71313
G1 X192.627 Y49.814 E34.72486
G1 X193.027 Y49.925 E34.74419
G1 X193.24 Y49.989 E34.75455
G1 X194.495 Y50.455 E34.81688
G1 X195.346 Y50.877 E34.86111
G1 X195.915 Y51.214 E34.89191
G1 X196.086 Y51.323 E34.90135
G1 X196.819 Y51.836 E34.94301
G1 X197.026 Y51.994 E34.95514
G1 X197.733 Y52.584 E34.99801
G1 X198.386 Y53.233 E35.04088
G1 X198.984 Y53.94 E35.084
G1 X199.113 Y54.107 E35.09383
G1 X199.818 Y55.141 E35.1521
G1 X199.927 Y55.323 E35.16198
G1 X200.365 Y56.132 E35.20482
G1 X200.753 Y57.033 E35.2505
G1 X200.843 Y57.272 E35.26239
G1 X201.11 Y58.078 E35.30192
G1 X201.131 Y58.151 E35.30546
G1 X201.411 Y59.405 E35.36529
G1 X201.448 Y59.636 E35.37618
G1 X201.512 Y60.107 E35.39832
G1 X201.531 Y60.273 E35.4061
G1 X201.597 Y61.218 E35.45021
G1 X201.605 Y61.544 E35.46539
G1 X201.608 Y61.804 E35.4775
G1 X201.607 Y70.931 E35.90249
G1 X201.593 Y71.81 E35.94343
G1 X201.55 Y72.61 E35.98073
G1 X201.376 Y74.507 E36.06944
G1 X201.213 Y77.069 E36.18897
G1 X201.125 Y79.542 E36.3042
G1 X201.106 Y82.092 E36.42294
G1 X201.16 Y84.635 E36.54138
G1 X201.285 Y87.152 E36.65873
G1 X201.483 Y89.7 E36.77773
G1 X201.525 Y90.136 E36.79813
G1 X201.564 Y90.611 E36.82032
G1 X201.597 Y91.219 E36.84867
G1 X201.605 Y91.546 E36.8639
G1 X201.608 Y91.805 E36.87596
G1 X201.607 Y172.885 E40.65139
G1 X201.596 Y173.663 E40.68762
G1 X201.534 Y174.668 E40.73451
G1 X201.493 Y175.042 E40.75202
G1 X201.347 Y175.981 E40.79627
G1 X201.128 Y176.875 E40.83913
G1 X200.858 Y177.678 E40.87858
G1 X200.736 Y177.998 E40.89453
G1 X200.371 Y178.843 E40.93739
G1 X200.002 Y179.538 E40.97403
G1 X199.871 Y179.764 E40.98619
G1 X199.375 Y180.539 E41.02904
G1 X198.696 Y181.407 E41.08035
G1 X198.555 Y181.569 E41.09035
G1 X197.921 Y182.237 E41.13324
G1 X196.954 Y183.064 E41.19249
G1 X196.761 Y183.21 E41.20375
G1 X196.003 Y183.733 E41.24664
G1 X194.972 Y184.303 E41.30149
G1 X194.688 Y184.44 E41.31617
G1 X193.842 Y184.804 E41.35906
G1 X193.171 Y185.033 E41.39207
G1 X193.043 Y185.072 E41.3983
G1 X192.474 Y185.228 E41.42578
G1 X192.237 Y185.286 E41.43714
G1 X191.334 Y185.466 E41.48001
G1 X190.486 Y185.562 E41.51975
G1 X189.983 Y185.589 E41.54321
G1 X189.488 Y185.604 E41.56627
G1 X189.167 Y185.609 E41.58122
G1 X46.084 Y185.607 E48.24376
G1 X45.332 Y185.596 E48.27878
G1 X44.403 Y185.541 E48.32211
G1 X44.043 Y185.504 E48.33897
G1 X43.132 Y185.371 E48.38184
G1 X42.366 Y185.194 E48.41844
G1 X41.335 Y184.862 E48.46888
G1 X41.011 Y184.739 E48.48502
G1 X40.165 Y184.375 E48.5279
G1 X39.39 Y183.96 E48.56884
G1 X39.161 Y183.825 E48.58121
G1 X38.389 Y183.324 E48.62407
G1 X37.612 Y182.713 E48.6701
G1 X37.457 Y182.579 E48.67964
G1 X36.787 Y181.947 E48.72252
G1 X35.899 Y180.906 E48.78624
G1 X35.754 Y180.712 E48.79751
G1 X35.235 Y179.951 E48.84041
G1 X34.686 Y178.949 E48.89361
G1 X34.546 Y178.657 E48.90869
G1 X34.184 Y177.81 E48.95158
G1 X33.947 Y177.105 E48.98621
G1 X33.91 Y176.981 E48.99224
G1 X33.771 Y176.469 E49.01694
G1 X33.714 Y176.236 E49.02811
G1 X33.534 Y175.333 E49.07098
G1 X33.434 Y174.434 E49.1131
G1 X33.411 Y173.989 E49.13385
G1 X33.396 Y173.509 E49.15621
G1 X33.391 Y173.178 E49.17163
G1 X33.392 Y61.978 E54.34957
G1 X33.402 Y61.296 E54.38133
G1 X33.446 Y60.475 E54.41961
G1 X33.468 Y60.237 E54.43074
G1 X33.592 Y59.325 E54.4736
G1 X33.794 Y58.433 E54.51618
G1 X33.875 Y58.135 E54.53056
G1 X34.155 Y57.258 E54.57343
G1 X34.549 Y56.325 E54.62059
G1 X34.696 Y56.019 E54.6364
G1 X35.131 Y55.207 E54.67929
G1 X35.842 Y54.156 E54.73838
G1 X35.941 Y54.027 E54.74595
G1 X36.533 Y53.321 E54.78885
G1 X37.213 Y52.643 E54.83357
G1 X37.392 Y52.48 E54.84484
G1 X38.099 Y51.89 E54.88772
G0 F6000 X38.355 Y52.197
G1 F1200 X39.079 Y51.695 E54.92874
G1 X39.34 Y51.53 E54.94312
G1 X40.124 Y51.082 E54.98516
G1 X41.22 Y50.597 E55.04097
G1 X41.402 Y50.529 E55.05002
G1 X42.261 Y50.251 E55.09206
G1 X42.924 Y50.092 E55.12381
G1 X43.324 Y50.01 E55.14282
G1 X44.215 Y49.868 E55.18483
G1 X45.101 Y49.806 E55.22619
G1 X45.477 Y49.796 E55.2437
G1 X45.748 Y49.792 E55.25632
G1 X188.664 Y49.792 E61.91109
G1 X189.897 Y49.813 E61.96851
G1 X191.175 Y49.917 E62.02822
G1 X192.283 Y50.138 E62.08083
G1 X192.527 Y50.201 E62.09256
G1 X192.912 Y50.308 E62.11117
G1 X193.125 Y50.372 E62.12153
G1 X194.333 Y50.82 E62.18152
G1 X195.168 Y51.235 E62.22494
G1 X195.7 Y51.552 E62.25377
G1 X195.871 Y51.661 E62.26322
G1 X196.577 Y52.154 E62.30331
G1 X196.784 Y52.312 E62.31544
G1 X197.477 Y52.891 E62.35749
G1 X198.116 Y53.529 E62.39953
G1 X198.667 Y54.185 E62.43943
G1 X198.796 Y54.352 E62.44925
G1 X199.475 Y55.346 E62.50531
G1 X199.584 Y55.528 E62.51518
G1 X200.013 Y56.323 E62.55725
G1 X200.379 Y57.174 E62.60038
G1 X200.469 Y57.413 E62.61228
G1 X200.725 Y58.188 E62.65028
G1 X200.746 Y58.261 E62.65382
G1 X201.016 Y59.468 E62.71141
G1 X201.053 Y59.699 E62.7223
G1 X201.115 Y60.152 E62.74359
G1 X201.134 Y60.318 E62.75137
G1 X201.197 Y61.228 E62.79385
G1 X201.205 Y61.554 E62.80903
G1 X201.208 Y61.804 E62.82067
G1 X201.207 Y70.924 E63.24534
G1 X201.193 Y71.803 E63.28628
G1 X201.151 Y72.573 E63.32218
G1 X200.976 Y74.481 E63.4114
G1 X200.816 Y76.993 E63.52861
G1 X200.725 Y79.561 E63.64826
G1 X200.706 Y82.097 E63.76635
G1 X200.76 Y84.627 E63.88418
G1 X200.887 Y87.204 E64.00432
G1 X201.084 Y89.732 E64.1224
G1 X201.127 Y90.168 E64.1428
G1 X201.166 Y90.643 E64.16499
G1 X201.197 Y91.229 E64.19231
G1 X201.205 Y91.556 E64.20754
G1 X201.208 Y91.805 E64.21914
G1 X201.207 Y172.879 E67.99428
G1 X201.196 Y173.657 E68.03052
G1 X201.136 Y174.625 E68.07568
G1 X201.095 Y174.999 E68.0932
G1 X200.955 Y175.902 E68.13574
G1 X200.739 Y176.779 E68.1778
G1 X200.484 Y177.536 E68.215
G1 X200.362 Y177.856 E68.23094
G1 X200.003 Y178.684 E68.27297
G1 X199.656 Y179.337 E68.3074
G1 X199.525 Y179.563 E68.31956
G1 X199.038 Y180.324 E68.36163
G1 X198.394 Y181.145 E68.41022
G1 X198.253 Y181.307 E68.42022
G1 X197.63 Y181.961 E68.46228
G1 X196.713 Y182.745 E68.51846
G1 X196.52 Y182.891 E68.52973
G1 X195.776 Y183.403 E68.57178
G1 X194.798 Y183.943 E68.6238
G1 X194.514 Y184.08 E68.63848
G1 X193.684 Y184.436 E68.68054
G1 X193.055 Y184.65 E68.71147
G1 X192.927 Y184.689 E68.71771
G1 X192.379 Y184.84 E68.74417
G1 X192.142 Y184.898 E68.75554
G1 X191.256 Y185.073 E68.79759
G1 X190.457 Y185.163 E68.83503
G1 X189.971 Y185.189 E68.85769
G1 X189.476 Y185.204 E68.88075
G1 X189.167 Y185.209 E68.89514
G1 X46.09 Y185.207 E75.55741
G1 X45.338 Y185.196 E75.59243
G1 X44.444 Y185.144 E75.63412
G1 X44.084 Y185.107 E75.65098
G1 X43.191 Y184.975 E75.69301
G1 X42.469 Y184.808 E75.72752
G1 X41.477 Y184.488 E75.77605
G1 X41.153 Y184.365 E75.79219
G1 X40.324 Y184.007 E75.83424
G1 X39.593 Y183.616 E75.87284
G1 X39.364 Y183.481 E75.88522
G1 X38.607 Y182.988 E75.92728
G1 X37.873 Y182.41 E75.97078
G1 X37.718 Y182.276 E75.98033
G1 X37.062 Y181.656 E76.02236
G1 X36.219 Y180.667 E76.08287
G1 X36.074 Y180.473 E76.09414
G1 X35.566 Y179.726 E76.13621
G1 X35.046 Y178.776 E76.18664
G1 X34.906 Y178.484 E76.20172
G1 X34.552 Y177.653 E76.24378
G1 X34.33 Y176.99 E76.27633
G1 X34.293 Y176.866 E76.28236
G1 X34.159 Y176.374 E76.3061
G1 X34.102 Y176.141 E76.31727
G1 X33.927 Y175.255 E76.35933
G1 X33.833 Y174.407 E76.39905
G1 X33.811 Y173.977 E76.4191
G1 X33.796 Y173.497 E76.44146
G1 X33.791 Y173.178 E76.45632
G1 X33.792 Y61.983 E81.63402
G1 X33.802 Y61.301 E81.66579
G1 X33.844 Y60.512 E81.70258
G1 X33.866 Y60.274 E81.71371
G1 X33.989 Y59.379 E81.75577
G1 X34.18 Y58.538 E81.79593
G1 X34.261 Y58.24 E81.81031
G1 X34.536 Y57.379 E81.8524
G1 X34.91 Y56.498 E81.89696
G1 X35.057 Y56.192 E81.91277
G1 X35.484 Y55.396 E81.95483
G1 X36.159 Y54.399 E82.0109
G1 X36.258 Y54.27 E82.01847
G1 X36.839 Y53.579 E82.06051
G1 X37.482 Y52.938 E82.10278
G1 X37.661 Y52.775 E82.11406
G1 X38.355 Y52.197 E82.15611
G1 F2700 E77.15611
;MESH:Base.stl
G0 F6000 X43.369 Y61.021
G0 X44.41 Y61.481
G0 X44.762 Y173.465
G0 X44.825 Y173.816
G0 X45.005 Y174.06
G0 X45.52 Y174.408
;TYPE:WALL-INNER
G1 F2700 E82.15611
G1 F1200 X45.227 Y174.374 E82.16985
G1 X44.959 Y174.267 E82.18328
G1 X44.813 Y174.144 E82.19217
G1 X44.661 Y173.876 E82.20652
G1 X44.591 Y173.482 E82.22515
G1 X44.591 Y61.489 E87.44002
G1 X44.664 Y61.097 E87.45858
G1 X44.765 Y60.919 E87.46811
G1 X44.912 Y60.765 E87.47803
G1 X45.196 Y60.632 E87.49263
G1 X45.509 Y60.592 E87.50732
G1 X189.475 Y60.592 E94.21098
G1 X189.629 Y60.599 E94.21816
G1 X189.947 Y60.685 E94.2335
G1 X190.155 Y60.819 E94.24502
G1 X190.265 Y60.964 E94.25349
G1 X190.34 Y61.152 E94.26292
G1 X190.402 Y61.455 E94.27732
G1 X190.408 Y61.51 E94.2799
G1 X190.408 Y71.48 E94.74414
G1 X190.374 Y71.773 E94.75788
G1 X190.267 Y72.041 E94.77131
G1 X190.144 Y72.187 E94.7802
G1 X189.885 Y72.336 E94.79412
G1 X189.64 Y72.402 E94.80593
G1 X189.48 Y72.409 E94.81339
G1 X188.604 Y72.398 E94.85418
G1 X188.603 Y72.397 E94.85425
G1 X188.402 Y72.396 E94.86361
G1 X188.402 Y72.597 E94.86966
G1 X188.402 Y72.598 E94.86971
G1 X188.41 Y76.321 E95.04307
G1 X188.408 Y76.998 E95.07459
G1 X188.409 Y86.675 E95.52519
G1 X188.402 Y90.404 E95.69883
G1 X188.402 Y90.405 E95.69888
G1 X188.402 Y90.607 E95.70828
G1 X188.604 Y90.605 E95.71435
G1 X188.605 Y90.604 E95.71441
G1 X189.41 Y90.59 E95.7519
G1 X189.629 Y90.599 E95.76211
G1 X189.947 Y90.685 E95.77745
G1 X190.155 Y90.819 E95.78897
G1 X190.265 Y90.964 E95.79745
G1 X190.34 Y91.152 E95.80687
G1 X190.402 Y91.455 E95.82127
G1 X190.408 Y91.513 E95.82399
G1 X190.408 Y173.48 E99.64071
G1 X190.374 Y173.773 E99.65445
G1 X190.267 Y174.041 E99.66789
G1 X190.144 Y174.187 E99.67678
G1 X189.885 Y174.336 E99.69069
G1 X189.639 Y174.402 E99.70255
G1 X189.474 Y174.409 E99.71024
G1 X45.52 Y174.408 E106.41334
G0 F6000 X45.5 Y174.808
;TYPE:WALL-OUTER
G1 F1200 X45.127 Y174.765 E106.43082
G1 X44.756 Y174.616 E106.44944
G1 X44.737 Y174.603 E106.45051
G1 X44.512 Y174.413 E106.46422
G1 X44.328 Y174.137 E106.47967
G1 X44.283 Y174.008 E106.48603
G1 X44.2 Y173.698 E106.50098
G1 X44.191 Y173.5 E106.5102
G1 X44.191 Y61.472 E111.7267
G1 X44.217 Y61.202 E111.73933
G1 X44.293 Y60.94 E111.75203
G1 X44.442 Y60.677 E111.76611
G1 X44.666 Y60.443 E111.78119
G1 X44.93 Y60.305 E111.79506
G1 X45.091 Y60.244 E111.80308
G1 X45.365 Y60.194 E111.81605
G1 X45.503 Y60.192 E111.82247
G1 X189.493 Y60.192 E118.52725
G1 X189.688 Y60.201 E118.53634
G1 X190.11 Y60.315 E118.5567
