;FLAVOR:Marlin
;TIME:9027
;Filament used: 8.95764m
;Layer height: 0.28
;MINX:31.99
;MINY:47.99
;MINZ:0.28
;MAXX:203.01
;MAXY:187.01
;MAXZ:10.08
;Generated with Cura_SteamEngine 4.11.0
M140 S50
M105
M190 S50
M104 S210
M105
M109 S210
M82 ;absolute extrusion mode
; Ender 3 Custom Start G-code
G92 E0 ; Reset Extruder
G28 ; Home all axes
G1 Z2.0 F3000 ; Move Z Axis up little to prevent scratching of Heat Bed
G1 X0.1 Y20 Z0.3 F5000.0 ; Move to start position
G1 X0.1 Y200.0 Z0.3 F1500.0 E15 ; Draw the first line
G1 X0.4 Y200.0 Z0.3 F5000.0 ; Move to side a little
G1 X0.4 Y20 Z0.3 F1500.0 E30 ; Draw the second line
G92 E0 ; Reset Extruder
G1 Z2.0 F3000 ; Move Z Axis up little to prevent scratching of Heat Bed
G1 X5 Y20 Z0.3 F5000.0 ; Move over to prevent blob squish
G92 E0
G92 E0
G1 F2700 E-5
;LAYER_COUNT:36
;LAYER:0
M107
G0 F6000 X36.378 Y50.343 Z0.28
;TYPE:SKIRT
G1 F2700 E0
G1 F1200 X37.143 Y49.802 E0.04363
G1 X37.953 Y49.328 E0.08733
G1 X38.799 Y48.924 E0.13098
G1 X39.677 Y48.594 E0.17466
G1 X40.143 Y48.453 E0.19733
G1 X40.304 Y48.408 E0.20511
G1 X41.217 Y48.194 E0.24878
G1 X42.145 Y48.059 E0.29245
G1 X43.097 Y48.003 E0.33685
G1 X43.64 Y47.996 E0.36214
G1 X47.629 Y47.99 E0.54788
G1 X48.758 Y47.992 E0.60045
G1 X187.405 Y47.991 E7.05644
G1 X190.834 Y47.996 E7.21611
G1 X191.838 Y48.003 E7.26286
G1 X192.774 Y48.05 E7.3065
G1 X193.704 Y48.176 E7.3502
G1 X194.619 Y48.381 E7.39386
G1 X195.513 Y48.663 E7.43751
G1 X196.381 Y49.02 E7.48121
G1 X196.901 Y49.278 E7.50824
G1 X197.094 Y49.38 E7.51841
G1 X197.904 Y49.853 E7.56209
G1 X198.67 Y50.393 E7.60573
G1 X199.388 Y50.997 E7.64942
G1 X200.051 Y51.66 E7.69308
G1 X200.656 Y52.377 E7.73676
G1 X201.198 Y53.142 E7.78042
G1 X201.672 Y53.951 E7.82408
G1 X202.076 Y54.798 E7.86777
G1 X202.406 Y55.676 E7.91145
G1 X202.556 Y56.171 E7.93553
G1 X202.6 Y56.33 E7.94321
G1 X202.811 Y57.244 E7.98689
G1 X202.944 Y58.172 E8.03055
G1 X202.997 Y59.096 E8.07364
G1 X203.004 Y59.64 E8.09898
G1 X203.01 Y63.672 E8.28672
G1 X203.008 Y64.809 E8.33967
G1 X203.009 Y171.362 E13.30122
G1 X203.004 Y174.821 E13.46229
G1 X202.997 Y175.837 E13.5096
G1 X202.95 Y176.774 E13.55328
G1 X202.824 Y177.703 E13.59694
G1 X202.619 Y178.618 E13.6406
G1 X202.337 Y179.513 E13.68429
G1 X201.836 Y180.68 E13.74343
G1 X201.743 Y180.866 E13.75311
G1 X201.288 Y181.687 E13.79682
G1 X200.765 Y182.465 E13.84047
G1 X200.177 Y183.196 E13.88415
G1 X199.53 Y183.875 E13.92783
G1 X198.827 Y184.495 E13.97147
G1 X198.073 Y185.054 E14.01518
G1 X197.275 Y185.546 E14.05883
G1 X196.438 Y185.969 E14.1025
G1 X195.568 Y186.319 E14.14617
G1 X195.082 Y186.478 E14.16998
G1 X194.913 Y186.529 E14.1782
G1 X194.004 Y186.761 E14.22188
G1 X193.079 Y186.916 E14.26555
G1 X191.903 Y186.997 E14.32044
G1 X191.36 Y187.004 E14.34573
G1 X187.371 Y187.01 E14.53147
G1 X186.242 Y187.008 E14.58405
G1 X47.595 Y187.009 E21.04003
G1 X44.166 Y187.004 E21.1997
G1 X43.162 Y186.997 E21.24645
G1 X42.226 Y186.95 E21.29009
G1 X41.296 Y186.824 E21.33379
G1 X40.381 Y186.619 E21.37745
G1 X39.487 Y186.337 E21.4211
G1 X38.619 Y185.98 E21.46481
G1 X38.099 Y185.722 E21.49184
G1 X37.906 Y185.62 E21.502
G1 X37.096 Y185.147 E21.54568
G1 X36.33 Y184.607 E21.58932
G1 X35.612 Y184.003 E21.63301
G1 X34.949 Y183.34 E21.67667
G1 X34.344 Y182.623 E21.72035
G1 X33.802 Y181.858 E21.76401
G1 X33.328 Y181.049 E21.80767
G1 X32.924 Y180.202 E21.85136
G1 X32.594 Y179.324 E21.89504
G1 X32.444 Y178.829 E21.91912
G1 X32.4 Y178.67 E21.92681
G1 X32.189 Y177.756 E21.97048
G1 X32.056 Y176.828 E22.01414
G1 X32.003 Y175.894 E22.0577
G1 X31.996 Y175.335 E22.08373
G1 X31.99 Y171.328 E22.27031
G1 X31.992 Y170.191 E22.32326
G1 X31.991 Y63.638 E27.28481
G1 X31.996 Y60.039 E27.45239
G1 X32.003 Y59.151 E27.49375
G1 X32.051 Y58.215 E27.53739
G1 X32.178 Y57.285 E27.58109
G1 X32.383 Y56.37 E27.62476
G1 X32.666 Y55.476 E27.66842
G1 X33.024 Y54.609 E27.7121
G1 X33.279 Y54.096 E27.73877
G1 X33.38 Y53.905 E27.74883
G1 X33.853 Y53.095 E27.79251
G1 X34.394 Y52.329 E27.83618
G1 X34.998 Y51.611 E27.87987
G1 X35.661 Y50.948 E27.92353
G1 X36.378 Y50.343 E27.96721
G0 F6000 X36.689 Y50.608
G1 F1200 X37.446 Y50.084 E28.01008
G1 X38.245 Y49.626 E28.05296
G1 X39.081 Y49.24 E28.09584
G1 X40.251 Y48.838 E28.15345
G1 X40.412 Y48.793 E28.16123
G1 X41.308 Y48.584 E28.20407
G1 X42.22 Y48.454 E28.24697
G1 X43.103 Y48.403 E28.28815
G1 X43.641 Y48.396 E28.31321
G1 X47.629 Y48.39 E28.49891
G1 X48.758 Y48.392 E28.55148
G1 X187.405 Y48.391 E35.00746
G1 X190.831 Y48.396 E35.16699
G1 X191.835 Y48.403 E35.21374
G1 X192.754 Y48.45 E35.25659
G1 X193.666 Y48.576 E35.29946
G1 X194.564 Y48.78 E35.34234
G1 X195.44 Y49.062 E35.38519
G1 X196.289 Y49.419 E35.42808
G1 X196.714 Y49.631 E35.45019
G1 X196.907 Y49.733 E35.46036
G1 X197.701 Y50.198 E35.5032
G1 X198.453 Y50.731 E35.54612
G1 X199.155 Y51.326 E35.58897
G1 X199.803 Y51.98 E35.63184
G1 X200.391 Y52.688 E35.6747
G1 X200.916 Y53.445 E35.71759
G1 X201.373 Y54.244 E35.76046
G1 X201.76 Y55.079 E35.80331
G1 X202.17 Y56.278 E35.86231
G1 X202.214 Y56.437 E35.87
G1 X202.421 Y57.334 E35.91286
G1 X202.549 Y58.246 E35.95574
G1 X202.597 Y59.102 E35.99567
G1 X202.604 Y59.641 E36.02077
G1 X202.61 Y63.672 E36.20847
G1 X202.608 Y64.809 E36.26141
G1 X202.609 Y171.362 E41.22296
G1 X202.604 Y174.818 E41.38389
G1 X202.597 Y175.834 E41.4312
G1 X202.55 Y176.754 E41.4741
G1 X202.425 Y177.666 E41.51696
G1 X202.22 Y178.563 E41.5598
G1 X201.938 Y179.44 E41.6027
G1 X201.478 Y180.501 E41.65655
G1 X201.385 Y180.687 E41.66623
G1 X200.938 Y181.492 E41.70911
G1 X200.423 Y182.255 E41.75197
G1 X199.843 Y182.971 E41.79488
G1 X199.204 Y183.633 E41.83772
G1 X198.509 Y184.237 E41.8806
G1 X197.765 Y184.779 E41.92346
G1 X196.976 Y185.255 E41.96636
G1 X196.15 Y185.66 E42.0092
G1 X194.966 Y186.095 E42.06794
G1 X194.797 Y186.146 E42.07616
G1 X193.905 Y186.373 E42.11902
G1 X192.997 Y186.523 E42.16187
G1 X191.897 Y186.597 E42.21321
G1 X191.359 Y186.604 E42.23826
G1 X187.371 Y186.61 E42.42396
G1 X186.242 Y186.608 E42.47653
G1 X47.595 Y186.609 E48.93251
G1 X44.169 Y186.604 E49.09204
G1 X43.165 Y186.597 E49.13879
G1 X42.246 Y186.55 E49.18164
G1 X41.334 Y186.424 E49.22451
G1 X40.436 Y186.22 E49.26739
G1 X39.56 Y185.938 E49.31024
G1 X38.711 Y185.581 E49.35313
G1 X38.286 Y185.369 E49.37525
G1 X38.093 Y185.267 E49.38541
G1 X37.299 Y184.802 E49.42826
G1 X36.547 Y184.269 E49.47118
G1 X35.845 Y183.674 E49.51403
G1 X35.197 Y183.02 E49.5569
G1 X34.609 Y182.312 E49.59975
G1 X34.084 Y181.555 E49.64265
G1 X33.627 Y180.756 E49.68551
G1 X33.24 Y179.921 E49.72836
G1 X32.83 Y178.722 E49.78737
G1 X32.786 Y178.563 E49.79505
G1 X32.579 Y177.666 E49.83791
G1 X32.451 Y176.754 E49.8808
G1 X32.403 Y175.888 E49.92118
G1 X32.396 Y175.334 E49.94698
G1 X32.39 Y171.328 E50.13352
G1 X32.392 Y170.191 E50.18646
G1 X32.391 Y63.639 E55.14797
G1 X32.396 Y60.042 E55.31546
G1 X32.403 Y59.154 E55.35681
G1 X32.451 Y58.235 E55.39966
G1 X32.577 Y57.323 E55.44253
G1 X32.783 Y56.426 E55.48539
G1 X33.065 Y55.549 E55.52828
G1 X33.423 Y54.701 E55.57114
G1 X33.632 Y54.283 E55.5929
G1 X33.733 Y54.092 E55.60297
G1 X34.199 Y53.297 E55.64587
G1 X34.731 Y52.546 E55.68873
G1 X35.327 Y51.844 E55.73161
G1 X35.981 Y51.197 E55.77445
G1 X36.689 Y50.608 E55.81733
G0 F6000 X37 Y50.875
G1 F1200 X37.747 Y50.367 E55.8594
G1 X38.536 Y49.927 E55.90146
G1 X39.36 Y49.559 E55.94348
G1 X40.358 Y49.224 E55.9925
G1 X40.519 Y49.179 E56.00029
G1 X41.399 Y48.974 E56.04236
G1 X42.293 Y48.848 E56.0844
G1 X43.109 Y48.803 E56.12245
G1 X43.642 Y48.796 E56.14727
G1 X47.628 Y48.79 E56.33288
G1 X48.757 Y48.792 E56.38545
G1 X187.404 Y48.791 E62.84144
G1 X190.828 Y48.796 E63.00087
G1 X191.832 Y48.803 E63.04762
G1 X192.734 Y48.85 E63.08968
G1 X193.628 Y48.975 E63.13171
G1 X194.508 Y49.18 E63.17379
G1 X195.366 Y49.461 E63.21583
G1 X196.527 Y49.985 E63.27514
G1 X196.72 Y50.087 E63.28531
G1 X197.499 Y50.544 E63.32736
G1 X198.235 Y51.068 E63.36943
G1 X198.921 Y51.655 E63.41147
G1 X199.552 Y52.3 E63.45349
G1 X200.125 Y52.999 E63.49557
G1 X200.633 Y53.746 E63.53764
G1 X201.073 Y54.534 E63.57966
G1 X201.441 Y55.359 E63.62173
G1 X201.785 Y56.385 E63.67212
G1 X201.829 Y56.544 E63.6798
G1 X202.031 Y57.424 E63.72184
G1 X202.154 Y58.318 E63.76386
G1 X202.197 Y59.108 E63.8007
G1 X202.204 Y59.642 E63.82557
G1 X202.21 Y63.671 E64.01318
G1 X202.208 Y64.808 E64.06612
G1 X202.209 Y171.361 E69.02767
G1 X202.204 Y174.815 E69.18851
G1 X202.197 Y175.831 E69.23582
G1 X202.151 Y176.733 E69.27787
G1 X202.025 Y177.627 E69.31991
G1 X201.82 Y178.507 E69.36198
G1 X201.539 Y179.365 E69.40403
G1 X201.12 Y180.323 E69.45271
G1 X201.027 Y180.509 E69.4624
G1 X200.588 Y181.298 E69.50444
G1 X200.081 Y182.045 E69.54648
G1 X199.509 Y182.744 E69.58854
G1 X198.878 Y183.39 E69.63058
G1 X198.192 Y183.978 E69.67266
G1 X197.457 Y184.503 E69.71472
G1 X196.679 Y184.96 E69.75673
G1 X195.863 Y185.347 E69.79878
G1 X194.851 Y185.712 E69.84888
G1 X194.682 Y185.763 E69.8571
G1 X193.807 Y185.985 E69.89913
G1 X192.915 Y186.13 E69.94121
G1 X191.891 Y186.197 E69.989
G1 X191.358 Y186.204 E70.01382
G1 X187.372 Y186.21 E70.19942
G1 X186.243 Y186.208 E70.25199
G1 X47.596 Y186.209 E76.70798
G1 X44.172 Y186.204 E76.86741
G1 X43.168 Y186.197 E76.91417
G1 X42.266 Y186.15 E76.95622
G1 X41.372 Y186.025 E76.99826
G1 X40.492 Y185.82 E77.04033
G1 X39.634 Y185.539 E77.08237
G1 X38.473 Y185.015 E77.14168
G1 X38.28 Y184.913 E77.15185
G1 X37.501 Y184.456 E77.1939
G1 X36.765 Y183.932 E77.23597
G1 X36.079 Y183.345 E77.27801
G1 X35.448 Y182.7 E77.32003
G1 X34.875 Y182.001 E77.36212
G1 X34.367 Y181.254 E77.40418
G1 X33.927 Y180.466 E77.4462
G1 X33.559 Y179.641 E77.48827
G1 X33.215 Y178.615 E77.53866
G1 X33.171 Y178.456 E77.54634
G1 X32.969 Y177.576 E77.58838
G1 X32.846 Y176.682 E77.6304
G1 X32.803 Y175.882 E77.66771
G1 X32.796 Y175.333 E77.69327
G1 X32.79 Y171.329 E77.87972
G1 X32.792 Y170.192 E77.93266
G1 X32.791 Y63.64 E82.89417
G1 X32.796 Y60.046 E83.06152
G1 X32.803 Y59.158 E83.10287
G1 X32.85 Y58.256 E83.14493
G1 X32.977 Y57.362 E83.18697
G1 X33.182 Y56.482 E83.22905
G1 X33.465 Y55.624 E83.27112
G1 X33.986 Y54.47 E83.33007
G1 X34.087 Y54.279 E83.34013
G1 X34.544 Y53.5 E83.38219
G1 X35.068 Y52.765 E83.42422
G1 X35.656 Y52.078 E83.46633
G1 X36.301 Y51.447 E83.50834
G1 X37 Y50.875 E83.5504
G1 F2700 E78.5504
;MESH:Lid.stl
G0 F6000 X59.296 Y76.676
G0 X59.462 Y75.22
G0 X175.786 Y75.577
G0 X176.821 Y75.775
G0 X177.269 Y75.977
G0 X177.649 Y76.257
G0 X177.953 Y76.619
G0 X178.178 Y77.056
G0 X178.41 Y78.075
G0 X178.416 Y162.861
G0 X178.225 Y163.821
G0 X178.023 Y164.269
G0 X177.743 Y164.649
G0 X177.381 Y164.953
G0 X177.134 Y165.079
G0 X175.53 Y165.591
;TYPE:WALL-INNER
G1 F2700 E83.5504
G1 F1200 X175.937 Y165.571 E83.56938
G1 X176.222 Y165.541 E83.58272
G1 X176.548 Y165.469 E83.59827
G1 X177.005 Y165.327 E83.62055
G1 X177.471 Y165.087 E83.64496
G1 X177.861 Y164.76 E83.66866
G1 X178.163 Y164.351 E83.69233
G1 X178.377 Y163.876 E83.71659
G1 X178.463 Y163.586 E83.73067
G1 X178.528 Y163.257 E83.74629
G1 X178.576 Y162.878 E83.76408
G1 X178.583 Y162.793 E83.76805
G1 X178.592 Y162.509 E83.78128
G1 X178.591 Y78.47 E87.69449
G1 X178.571 Y78.063 E87.71346
G1 X178.541 Y77.778 E87.72681
G1 X178.469 Y77.452 E87.74235
G1 X178.327 Y76.995 E87.76464
G1 X178.087 Y76.529 E87.78904
G1 X177.76 Y76.139 E87.81274
G1 X177.351 Y75.837 E87.83642
G1 X176.876 Y75.623 E87.86068
G1 X176.586 Y75.537 E87.87476
G1 X176.256 Y75.472 E87.89042
G1 X175.799 Y75.417 E87.91185
G1 X175.509 Y75.408 E87.92537
G1 X59.463 Y75.41 E93.32895
G1 X59.194 Y75.412 E93.34148
G1 X58.869 Y75.462 E93.35679
G1 X58.632 Y75.488 E93.36789
G1 X58.198 Y75.602 E93.38879
G1 X57.8 Y75.761 E93.40874
G1 X57.433 Y75.983 E93.42872
G1 X57.117 Y76.27 E93.44859
G1 X56.867 Y76.606 E93.46809
G1 X56.678 Y76.989 E93.48798
G1 X56.625 Y77.138 E93.49535
G1 X56.532 Y77.45 E93.51051
G1 X56.493 Y77.631 E93.51913
G1 X56.428 Y78.076 E93.54007
G1 X56.408 Y78.485 E93.55914
G1 X56.409 Y162.53 E97.47262
G1 X56.429 Y162.937 E97.4916
G1 X56.459 Y163.222 E97.50494
G1 X56.531 Y163.548 E97.52049
G1 X56.673 Y164.005 E97.54277
G1 X56.913 Y164.471 E97.56718
G1 X57.24 Y164.861 E97.59088
G1 X57.649 Y165.163 E97.61455
G1 X58.124 Y165.377 E97.63881
G1 X58.414 Y165.463 E97.65289
G1 X58.744 Y165.528 E97.66856
G1 X59.201 Y165.583 E97.68999
G1 X59.491 Y165.592 E97.7035
G1 X175.53 Y165.591 E103.10676
G0 F6000 X175.52 Y165.191
;TYPE:WALL-OUTER
G1 F1200 X175.907 Y165.172 E103.1248
G1 X176.158 Y165.146 E103.13655
G1 X176.445 Y165.082 E103.15025
G1 X176.853 Y164.955 E103.17014
G1 X177.248 Y164.752 E103.19082
G1 X177.567 Y164.484 E103.21022
G1 X177.816 Y164.147 E103.22973
G1 X177.957 Y163.838 E103.24555
G1 X178 Y163.739 E103.25058
G1 X178.074 Y163.49 E103.26267
G1 X178.133 Y163.193 E103.27677
G1 X178.178 Y162.835 E103.29357
G1 X178.184 Y162.769 E103.29666
G1 X178.192 Y162.503 E103.30905
G1 X178.191 Y78.48 E107.22151
G1 X178.172 Y78.093 E107.23955
G1 X178.146 Y77.842 E107.2513
G1 X178.082 Y77.555 E107.265
G1 X177.955 Y77.147 E107.28489
G1 X177.752 Y76.752 E107.30557
G1 X177.484 Y76.433 E107.32497
G1 X177.147 Y76.184 E107.34448
G1 X176.838 Y76.043 E107.3603
G1 X176.739 Y76 E107.36533
G1 X176.49 Y75.926 E107.37742
G1 X176.193 Y75.867 E107.39152
G1 X175.769 Y75.816 E107.41141
G1 X175.503 Y75.808 E107.4238
G1 X59.465 Y75.81 E112.82701
G1 X59.226 Y75.812 E112.83814
G1 X58.911 Y75.86 E112.85298
G1 X58.705 Y75.882 E112.86263
G1 X58.324 Y75.983 E112.88098
G1 X57.979 Y76.12 E112.89827
G1 X57.673 Y76.305 E112.91492
G1 X57.415 Y76.54 E112.93117
G1 X57.209 Y76.816 E112.9472
G1 X57.047 Y77.144 E112.96424
G1 X57.006 Y77.261 E112.97001
G1 X56.92 Y77.55 E112.98405
G1 X56.887 Y77.702 E112.99129
G1 X56.827 Y78.115 E113.01073
G1 X56.808 Y78.495 E113.02844
G1 X56.809 Y162.52 E116.941
G1 X56.828 Y162.907 E116.95904
G1 X56.854 Y163.158 E116.97079
G1 X56.918 Y163.445 E116.98448
G1 X57.045 Y163.853 E117.00438
G1 X57.248 Y164.248 E117.02506
G1 X57.516 Y164.567 E117.04446
G1 X57.853 Y164.816 E117.06397
G1 X58.162 Y164.957 E117.07979
G1 X58.261 Y165 E117.08481
G1 X58.51 Y165.074 E117.09691
G1 X58.807 Y165.133 E117.11101
G1 X59.231 Y165.184 E117.13089
G1 X59.497 Y165.192 E117.14329
G1 X175.52 Y165.191 E122.5458
G0 F6000 X175.53 Y165.63
G1 F2700 E117.5458
G0 F6000 X177.078 Y165.504
G0 X176.52 Y164.157
G0 X177.079 Y176.673
G0 X177.078 Y175.199
G0 X186.482 Y175.408
;TYPE:WALL-INNER
G1 F2700 E122.5458
G1 F1200 X47.612 Y175.409 E129.01217
G1 X43.596 Y175.404 E129.19917
G1 X43.59 Y171.348 E129.38804
G1 X43.592 Y170.43 E129.43078
G1 X43.591 Y63.655 E134.40267
G1 X43.597 Y59.596 E134.59168
G1 X47.61 Y59.59 E134.77854
G1 X48.518 Y59.592 E134.82082
G1 X187.388 Y59.591 E141.28719
G1 X191.404 Y59.597 E141.47419
G1 X191.41 Y63.652 E141.66301
G1 X191.408 Y64.57 E141.70576
G1 X191.409 Y171.345 E146.67765
G1 X191.404 Y175.404 E146.86665
G1 X187.39 Y175.41 E147.05356
G1 X186.482 Y175.408 E147.09584
G0 F6000 X186.481 Y175.808
;TYPE:WALL-OUTER
G1 F1200 X47.611 Y175.809 E153.56221
G1 X43.233 Y175.804 E153.76607
G1 X43.197 Y175.767 E153.76847
G1 X43.19 Y171.347 E153.97429
G1 X43.192 Y170.429 E154.01703
G1 X43.191 Y63.654 E158.98892
G1 X43.197 Y59.233 E159.19478
G1 X43.233 Y59.197 E159.19715
G1 X47.61 Y59.19 E159.40097
G1 X48.519 Y59.192 E159.44329
G1 X187.389 Y59.191 E165.90966
G1 X191.767 Y59.197 E166.11352
G1 X191.803 Y59.233 E166.11589
G1 X191.81 Y63.653 E166.32171
G1 X191.808 Y64.571 E166.36445
G1 X191.809 Y171.346 E171.33634
G1 X191.804 Y175.767 E171.5422
G1 X191.767 Y175.803 E171.54461
G1 X187.39 Y175.81 E171.74842
G1 X186.481 Y175.808 E171.79075
G0 F6000 X186.481 Y175.368
G0 X186.482 Y175.018
;TYPE:SKIN
G1 F1200 X47.612 Y175.019 E178.25711
G1 X43.986 Y175.014 E178.42596
G1 X43.98 Y171.348 E178.59666
